X:79
T:Brown’s Hornpipe. JGi.079
O:Tealby,Lincolnshire
M:C|
L:1/8
Q:1/2=90
S:Joshua Gibbons MS,1823,Tealby,Lincs.
R:.hornpipe
Z:VMP/R.Greig, 2009
K:D
fg|afaf dfdf|edcB A2 AG|FAdf gfed|c2A2A2gg|
afaf dfdf|edcBA2AG|FAdf gfdc|d2d2d2:|
|:cd|ecA2 ecfd|ecA2 ecec|fedf edcd|d2B2B2AG|
FAdc dABG|E2ef gfgf|dfaf bgec|d2d2d2:|

